gtk-icons/Papirus-GTK/22x22/actions/bwtonal.svg

<?xml version="1.0" encoding="UTF-8" standalone="no"?>
<!-- Created with Inkscape (http://www.inkscape.org/) -->

<svg
   xmlns:dc="http://purl.org/dc/elements/1.1/"
   xmlns:cc="http://creativecommons.org/ns#"
   xmlns:rdf="http://www.w3.org/1999/02/22-rdf-syntax-ns#"
   xmlns:svg="http://www.w3.org/2000/svg"
   xmlns="http://www.w3.org/2000/svg"
   xmlns:sodipodi="http://sodipodi.sourceforge.net/DTD/sodipodi-0.dtd"
   xmlns:inkscape="http://www.inkscape.org/namespaces/inkscape"
   width="22"
   height="22"
   id="svg4355"
   version="1.1"
   inkscape:version="0.91 r13725"
   sodipodi:docname="bwtonal.svg">
  <defs
     id="defs4357">
    <style
       type="text/css"
       id="current-color-scheme">
      .ColorScheme-Text {
        color:#4d4d4d;
      }
      .ColorScheme-Background {
        color:#eff0f1;
      }
      .ColorScheme-Highlight {
        color:#3daee9;
      }
      .ColorScheme-ViewText {
        color:#31363b;
      }
      .ColorScheme-ViewBackground {
        color:#fcfcfc;
      }
      .ColorScheme-ViewHover {
        color:#93cee9;
      }
      .ColorScheme-ViewFocus{
        color:#3daee9;
      }
      .ColorScheme-ButtonText {
        color:#31363b;
      }
      .ColorScheme-ButtonBackground {
        color:#eff0f1;
      }
      .ColorScheme-ButtonHover {
        color:#93cee9;
      }
      .ColorScheme-ButtonFocus{
        color:#3daee9;
      }
      </style>
  </defs>
  <sodipodi:namedview
     id="base"
     pagecolor="#ffffff"
     bordercolor="#666666"
     borderopacity="1.0"
     inkscape:pageopacity="0.0"
     inkscape:pageshadow="2"
     inkscape:zoom="14.06"
     inkscape:cx="-8.3956184"
     inkscape:cy="12.585195"
     inkscape:document-units="px"
     inkscape:current-layer="layer1"
     showgrid="false"
     width="0px"
     height="0px"
     fit-margin-top="0"
     fit-margin-left="0"
     fit-margin-right="0"
     fit-margin-bottom="0"
     inkscape:window-width="1600"
     inkscape:window-height="847"
     inkscape:window-x="0"
     inkscape:window-y="30"
     inkscape:window-maximized="1"
     inkscape:showpageshadow="false"
     inkscape:snap-bbox="true"
     inkscape:snap-global="true"
     inkscape:object-nodes="true"
     showguides="false"
     inkscape:guide-bbox="true">
    <inkscape:grid
       type="xygrid"
       id="grid4114" />
    <sodipodi:guide
       position="2,13"
       orientation="18,0"
       id="guide4120" />
    <sodipodi:guide
       position="2.0000011,1.9999962"
       orientation="0,18"
       id="guide4122" />
    <sodipodi:guide
       position="20.000001,1.9999962"
       orientation="-18,0"
       id="guide4124" />
    <sodipodi:guide
       position="3,6"
       orientation="16,0"
       id="guide4128" />
    <sodipodi:guide
       position="3.0000011,2.9999962"
       orientation="0,16"
       id="guide4130" />
    <sodipodi:guide
       position="6,19"
       orientation="0,-16"
       id="guide4134" />
    <sodipodi:guide
       position="19,11"
       orientation="1,0"
       id="guide4431" />
  </sodipodi:namedview>
  <metadata
     id="metadata4360">
    <rdf:RDF>
      <cc:Work
         rdf:about="">
        <dc:format>image/svg+xml</dc:format>
        <dc:type
           rdf:resource="http://purl.org/dc/dcmitype/StillImage" />
        <dc:title></dc:title>
      </cc:Work>
    </rdf:RDF>
  </metadata>
  <g
     inkscape:label="Capa 1"
     inkscape:groupmode="layer"
     id="layer1"
     transform="translate(-544.57141,-742.93359)">
    <rect
       style="fill:currentColor;fill-opacity:1;stroke:none"
       id="rect4035"
       width="0"
       height="10.999983"
       x="507.10324"
       y="747.55408"
       class="ColorScheme-Text" />
    <rect
       style="fill:currentColor;fill-opacity:1;stroke:none"
       id="rect4035-5"
       width="0"
       height="10.999983"
       x="525.14404"
       y="745.50281"
       class="ColorScheme-Text" />
    <rect
       style="fill:currentColor;fill-opacity:1;stroke:none"
       id="rect4035-8"
       width="0"
       height="10.999983"
       x="507.10324"
       y="747.55408"
       class="ColorScheme-Text" />
    <rect
       style="fill:currentColor;fill-opacity:1;stroke:none"
       id="rect4035-59"
       width="0"
       height="10.999983"
       x="507.10324"
       y="747.55408"
       class="ColorScheme-Text" />
    <rect
       style="fill:currentColor;fill-opacity:1;stroke:none"
       id="rect4035-6"
       width="0"
       height="10.999983"
       x="499.7951"
       y="742.71948"
       class="ColorScheme-Text" />
    <rect
       style="fill:currentColor;fill-opacity:1;stroke:none"
       id="rect4035-5-1"
       width="0"
       height="10.999983"
       x="517.83588"
       y="740.66809"
       class="ColorScheme-Text" />
    <rect
       style="fill:currentColor;fill-opacity:1;stroke:none"
       id="rect4035-8-3"
       width="0"
       height="10.999983"
       x="499.7951"
       y="742.71948"
       class="ColorScheme-Text" />
    <rect
       style="fill:currentColor;fill-opacity:1;stroke:none"
       id="rect4035-59-4"
       width="0"
       height="10.999983"
       x="499.7951"
       y="742.71948"
       class="ColorScheme-Text" />
    <rect
       style="fill:currentColor;fill-opacity:1;stroke:none"
       id="rect4035-1"
       width="0"
       height="10.999983"
       x="505.81027"
       y="746.93567"
       class="ColorScheme-Text" />
    <rect
       style="fill:currentColor;fill-opacity:1;stroke:none"
       id="rect4035-5-0"
       width="0"
       height="10.999983"
       x="523.85107"
       y="744.8844"
       class="ColorScheme-Text" />
    <rect
       style="fill:currentColor;fill-opacity:1;stroke:none"
       id="rect4035-8-1"
       width="0"
       height="10.999983"
       x="505.81027"
       y="746.93567"
       class="ColorScheme-Text" />
    <rect
       style="fill:currentColor;fill-opacity:1;stroke:none"
       id="rect4035-59-1"
       width="0"
       height="10.999983"
       x="505.81027"
       y="746.93567"
       class="ColorScheme-Text" />
    <rect
       y="747.55408"
       x="507.10324"
       height="10.999983"
       width="0"
       id="rect4035-7"
       style="fill:currentColor;fill-opacity:1;stroke:none"
       class="ColorScheme-Text" />
    <rect
       y="745.50281"
       x="525.14404"
       height="10.999983"
       width="0"
       id="rect4035-5-7"
       style="fill:currentColor;fill-opacity:1;stroke:none"
       class="ColorScheme-Text" />
    <rect
       y="747.55408"
       x="507.10324"
       height="10.999983"
       width="0"
       id="rect4035-8-16"
       style="fill:currentColor;fill-opacity:1;stroke:none"
       class="ColorScheme-Text" />
    <rect
       y="747.55408"
       x="507.10324"
       height="10.999983"
       width="0"
       id="rect4035-59-18"
       style="fill:currentColor;fill-opacity:1;stroke:none"
       class="ColorScheme-Text" />
    <rect
       y="742.71948"
       x="499.7951"
       height="10.999983"
       width="0"
       id="rect4035-6-5"
       style="fill:currentColor;fill-opacity:1;stroke:none"
       class="ColorScheme-Text" />
    <rect
       y="740.66809"
       x="517.83588"
       height="10.999983"
       width="0"
       id="rect4035-5-1-8"
       style="fill:currentColor;fill-opacity:1;stroke:none"
       class="ColorScheme-Text" />
    <rect
       y="742.71948"
       x="499.7951"
       height="10.999983"
       width="0"
       id="rect4035-8-3-8"
       style="fill:currentColor;fill-opacity:1;stroke:none"
       class="ColorScheme-Text" />
    <rect
       y="742.71948"
       x="499.7951"
       height="10.999983"
       width="0"
       id="rect4035-59-4-7"
       style="fill:currentColor;fill-opacity:1;stroke:none"
       class="ColorScheme-Text" />
    <rect
       y="746.93567"
       x="505.81027"
       height="10.999983"
       width="0"
       id="rect4035-1-7"
       style="fill:currentColor;fill-opacity:1;stroke:none"
       class="ColorScheme-Text" />
    <rect
       y="744.8844"
       x="523.85107"
       height="10.999983"
       width="0"
       id="rect4035-5-0-8"
       style="fill:currentColor;fill-opacity:1;stroke:none"
       class="ColorScheme-Text" />
    <rect
       y="746.93567"
       x="505.81027"
       height="10.999983"
       width="0"
       id="rect4035-8-1-0"
       style="fill:currentColor;fill-opacity:1;stroke:none"
       class="ColorScheme-Text" />
    <rect
       y="746.93567"
       x="505.81027"
       height="10.999983"
       width="0"
       id="rect4035-59-1-3"
       style="fill:currentColor;fill-opacity:1;stroke:none"
       class="ColorScheme-Text" />
    <rect
       y="750.93359"
       x="504.57141"
       height="10.999983"
       width="0"
       id="rect4035-0"
       style="fill:currentColor;fill-opacity:1;stroke:none"
       class="ColorScheme-Text" />
    <rect
       y="748.88232"
       x="522.61218"
       height="10.999983"
       width="0"
       id="rect4035-5-5"
       style="fill:currentColor;fill-opacity:1;stroke:none"
       class="ColorScheme-Text" />
    <rect
       y="750.93359"
       x="504.57141"
       height="10.999983"
       width="0"
       id="rect4035-8-6"
       style="fill:currentColor;fill-opacity:1;stroke:none"
       class="ColorScheme-Text" />
    <rect
       y="750.93359"
       x="504.57141"
       height="10.999983"
       width="0"
       id="rect4035-59-11"
       style="fill:currentColor;fill-opacity:1;stroke:none"
       class="ColorScheme-Text" />
    <rect
       y="747.29968"
       x="488.58331"
       height="10.999983"
       width="0"
       id="rect4035-9"
       style="fill:currentColor;fill-opacity:1;stroke:none"
       class="ColorScheme-Text" />
    <rect
       y="745.24841"
       x="506.62408"
       height="10.999983"
       width="0"
       id="rect4035-5-8"
       style="fill:currentColor;fill-opacity:1;stroke:none"
       class="ColorScheme-Text" />
    <rect
       y="747.29968"
       x="488.58331"
       height="10.999983"
       width="0"
       id="rect4035-8-0"
       style="fill:currentColor;fill-opacity:1;stroke:none"
       class="ColorScheme-Text" />
    <rect
       y="747.29968"
       x="488.58331"
       height="10.999983"
       width="0"
       id="rect4035-59-1-8"
       style="fill:currentColor;fill-opacity:1;stroke:none"
       class="ColorScheme-Text" />
    <rect
       style="fill:currentColor;fill-opacity:1;stroke:none"
       id="rect4035-3"
       width="0"
       height="10.999983"
       x="507.10324"
       y="747.55408"
       class="ColorScheme-Text" />
    <rect
       style="fill:currentColor;fill-opacity:1;stroke:none"
       id="rect4035-5-2"
       width="0"
       height="10.999983"
       x="525.14404"
       y="745.50281"
       class="ColorScheme-Text" />
    <rect
       style="fill:currentColor;fill-opacity:1;stroke:none"
       id="rect4035-8-7"
       width="0"
       height="10.999983"
       x="507.10324"
       y="747.55408"
       class="ColorScheme-Text" />
    <rect
       style="fill:currentColor;fill-opacity:1;stroke:none"
       id="rect4035-59-43"
       width="0"
       height="10.999983"
       x="507.10324"
       y="747.55408"
       class="ColorScheme-Text" />
    <rect
       style="fill:currentColor;fill-opacity:1;stroke:none"
       id="rect4035-6-2"
       width="0"
       height="10.999983"
       x="499.7951"
       y="742.71948"
       class="ColorScheme-Text" />
    <rect
       style="fill:currentColor;fill-opacity:1;stroke:none"
       id="rect4035-5-1-6"
       width="0"
       height="10.999983"
       x="517.83588"
       y="740.66809"
       class="ColorScheme-Text" />
    <rect
       style="fill:currentColor;fill-opacity:1;stroke:none"
       id="rect4035-8-3-4"
       width="0"
       height="10.999983"
       x="499.7951"
       y="742.71948"
       class="ColorScheme-Text" />
    <rect
       style="fill:currentColor;fill-opacity:1;stroke:none"
       id="rect4035-59-4-8"
       width="0"
       height="10.999983"
       x="499.7951"
       y="742.71948"
       class="ColorScheme-Text" />
    <rect
       style="fill:currentColor;fill-opacity:1;stroke:none"
       id="rect4035-1-8"
       width="0"
       height="10.999983"
       x="505.81027"
       y="746.93567"
       class="ColorScheme-Text" />
    <rect
       style="fill:currentColor;fill-opacity:1;stroke:none"
       id="rect4035-5-0-0"
       width="0"
       height="10.999983"
       x="523.85107"
       y="744.8844"
       class="ColorScheme-Text" />
    <rect
       style="fill:currentColor;fill-opacity:1;stroke:none"
       id="rect4035-8-1-3"
       width="0"
       height="10.999983"
       x="505.81027"
       y="746.93567"
       class="ColorScheme-Text" />
    <rect
       style="fill:currentColor;fill-opacity:1;stroke:none"
       id="rect4035-59-1-1"
       width="0"
       height="10.999983"
       x="505.81027"
       y="746.93567"
       class="ColorScheme-Text" />
    <path
       style="color:#4d4d4d;opacity:0.5;fill:#000000;fill-opacity:1;stroke:none;stroke-linecap:round"
       d="M 11 4 A 4.9999981 4.9999981 0 0 0 6 9 A 4.9999981 4.9999981 0 0 0 6 9.0078125 A 4.9999995 4.9999981 0 0 0 4 13 A 4.9999995 4.9999981 0 0 0 9 18 A 4.9999995 4.9999981 0 0 0 10.996094 17.578125 A 4.9999995 4.9999981 0 0 0 13 18 A 4.9999995 4.9999981 0 0 0 18 13 A 4.9999995 4.9999981 0 0 0 16 9.0078125 A 4.9999981 4.9999981 0 0 0 16 9 A 4.9999981 4.9999981 0 0 0 11 4 z "
       transform="translate(544.57141,742.93359)"
       id="path4149-7" />
  </g>
</svg>

<?xml version="1.0" encoding="UTF-8" standalone="no"?>
<!-- Created with Inkscape (http://www.inkscape.org/) -->
<svg id="svg4355" xmlns:rdf="http://www.w3.org/1999/02/22-rdf-syntax-ns#" xmlns="http://www.w3.org/2000/svg" height="22" width="22" version="1.1" xmlns:cc="http://creativecommons.org/ns#" xmlns:dc="http://purl.org/dc/elements/1.1/">
 <defs id="defs4357">
  <style id="current-color-scheme" type="text/css">.ColorScheme-Text {
        color:#4d4d4d;
      }
      .ColorScheme-Background {
        color:#eff0f1;
      }
      .ColorScheme-Highlight {
        color:#3daee9;
      }
      .ColorScheme-ViewText {
        color:#31363b;
      }
      .ColorScheme-ViewBackground {
        color:#fcfcfc;
      }
      .ColorScheme-ViewHover {
        color:#93cee9;
      }
      .ColorScheme-ViewFocus{
        color:#3daee9;
      }
      .ColorScheme-ButtonText {
        color:#31363b;
      }
      .ColorScheme-ButtonBackground {
        color:#eff0f1;
      }
      .ColorScheme-ButtonHover {
        color:#93cee9;
      }
      .ColorScheme-ButtonFocus{
        color:#3daee9;
      }</style>
 </defs>
 <metadata id="metadata4360">
  <rdf:RDF>
   <cc:Work rdf:about="">
    <dc:format>image/svg+xml</dc:format>
    <dc:type rdf:resource="http://purl.org/dc/dcmitype/StillImage"/>
    <dc:title/>
   </cc:Work>
  </rdf:RDF>
 </metadata>
 <g id="layer1" transform="translate(-544.57 -742.93)">
  <rect id="rect4035" class="ColorScheme-Text" height="11" width="0" y="747.55" x="507.1" fill="currentColor"/>
  <rect id="rect4035-5" class="ColorScheme-Text" height="11" width="0" y="745.5" x="525.14" fill="currentColor"/>
  <rect id="rect4035-8" class="ColorScheme-Text" height="11" width="0" y="747.55" x="507.1" fill="currentColor"/>
  <rect id="rect4035-59" class="ColorScheme-Text" height="11" width="0" y="747.55" x="507.1" fill="currentColor"/>
  <rect id="rect4035-6" class="ColorScheme-Text" height="11" width="0" y="742.72" x="499.8" fill="currentColor"/>
  <rect id="rect4035-5-1" class="ColorScheme-Text" height="11" width="0" y="740.67" x="517.84" fill="currentColor"/>
  <rect id="rect4035-8-3" class="ColorScheme-Text" height="11" width="0" y="742.72" x="499.8" fill="currentColor"/>
  <rect id="rect4035-59-4" class="ColorScheme-Text" height="11" width="0" y="742.72" x="499.8" fill="currentColor"/>
  <rect id="rect4035-1" class="ColorScheme-Text" height="11" width="0" y="746.94" x="505.81" fill="currentColor"/>
  <rect id="rect4035-5-0" class="ColorScheme-Text" height="11" width="0" y="744.88" x="523.85" fill="currentColor"/>
  <rect id="rect4035-8-1" class="ColorScheme-Text" height="11" width="0" y="746.94" x="505.81" fill="currentColor"/>
  <rect id="rect4035-59-1" class="ColorScheme-Text" height="11" width="0" y="746.94" x="505.81" fill="currentColor"/>
  <rect id="rect4035-7" class="ColorScheme-Text" height="11" width="0" y="747.55" x="507.1" fill="currentColor"/>
  <rect id="rect4035-5-7" class="ColorScheme-Text" height="11" width="0" y="745.5" x="525.14" fill="currentColor"/>
  <rect id="rect4035-8-16" class="ColorScheme-Text" height="11" width="0" y="747.55" x="507.1" fill="currentColor"/>
  <rect id="rect4035-59-18" class="ColorScheme-Text" height="11" width="0" y="747.55" x="507.1" fill="currentColor"/>
  <rect id="rect4035-6-5" class="ColorScheme-Text" height="11" width="0" y="742.72" x="499.8" fill="currentColor"/>
  <rect id="rect4035-5-1-8" class="ColorScheme-Text" height="11" width="0" y="740.67" x="517.84" fill="currentColor"/>
  <rect id="rect4035-8-3-8" class="ColorScheme-Text" height="11" width="0" y="742.72" x="499.8" fill="currentColor"/>
  <rect id="rect4035-59-4-7" class="ColorScheme-Text" height="11" width="0" y="742.72" x="499.8" fill="currentColor"/>
  <rect id="rect4035-1-7" class="ColorScheme-Text" height="11" width="0" y="746.94" x="505.81" fill="currentColor"/>
  <rect id="rect4035-5-0-8" class="ColorScheme-Text" height="11" width="0" y="744.88" x="523.85" fill="currentColor"/>
  <rect id="rect4035-8-1-0" class="ColorScheme-Text" height="11" width="0" y="746.94" x="505.81" fill="currentColor"/>
  <rect id="rect4035-59-1-3" class="ColorScheme-Text" height="11" width="0" y="746.94" x="505.81" fill="currentColor"/>
  <rect id="rect4035-0" class="ColorScheme-Text" height="11" width="0" y="750.93" x="504.57" fill="currentColor"/>
  <rect id="rect4035-5-5" class="ColorScheme-Text" height="11" width="0" y="748.88" x="522.61" fill="currentColor"/>
  <rect id="rect4035-8-6" class="ColorScheme-Text" height="11" width="0" y="750.93" x="504.57" fill="currentColor"/>
  <rect id="rect4035-59-11" class="ColorScheme-Text" height="11" width="0" y="750.93" x="504.57" fill="currentColor"/>
  <rect id="rect4035-9" class="ColorScheme-Text" height="11" width="0" y="747.3" x="488.58" fill="currentColor"/>
  <rect id="rect4035-5-8" class="ColorScheme-Text" height="11" width="0" y="745.25" x="506.62" fill="currentColor"/>
  <rect id="rect4035-8-0" class="ColorScheme-Text" height="11" width="0" y="747.3" x="488.58" fill="currentColor"/>
  <rect id="rect4035-59-1-8" class="ColorScheme-Text" height="11" width="0" y="747.3" x="488.58" fill="currentColor"/>
  <rect id="rect4035-3" class="ColorScheme-Text" height="11" width="0" y="747.55" x="507.1" fill="currentColor"/>
  <rect id="rect4035-5-2" class="ColorScheme-Text" height="11" width="0" y="745.5" x="525.14" fill="currentColor"/>
  <rect id="rect4035-8-7" class="ColorScheme-Text" height="11" width="0" y="747.55" x="507.1" fill="currentColor"/>
  <rect id="rect4035-59-43" class="ColorScheme-Text" height="11" width="0" y="747.55" x="507.1" fill="currentColor"/>
  <rect id="rect4035-6-2" class="ColorScheme-Text" height="11" width="0" y="742.72" x="499.8" fill="currentColor"/>
  <rect id="rect4035-5-1-6" class="ColorScheme-Text" height="11" width="0" y="740.67" x="517.84" fill="currentColor"/>
  <rect id="rect4035-8-3-4" class="ColorScheme-Text" height="11" width="0" y="742.72" x="499.8" fill="currentColor"/>
  <rect id="rect4035-59-4-8" class="ColorScheme-Text" height="11" width="0" y="742.72" x="499.8" fill="currentColor"/>
  <rect id="rect4035-1-8" class="ColorScheme-Text" height="11" width="0" y="746.94" x="505.81" fill="currentColor"/>
  <rect id="rect4035-5-0-0" class="ColorScheme-Text" height="11" width="0" y="744.88" x="523.85" fill="currentColor"/>
  <rect id="rect4035-8-1-3" class="ColorScheme-Text" height="11" width="0" y="746.94" x="505.81" fill="currentColor"/>
  <rect id="rect4035-59-1-1" class="ColorScheme-Text" height="11" width="0" y="746.94" x="505.81" fill="currentColor"/>
  <path id="path4149-7" opacity=".5" style="color:#4d4d4d" d="m11 4a5 5 0 0 0 -5 5 5 5 0 0 0 0 0.0078 5 5 0 0 0 -2 3.9922 5 5 0 0 0 5 5 5 5 0 0 0 1.996 -0.422 5 5 0 0 0 2.004 0.422 5 5 0 0 0 5 -5 5 5 0 0 0 -2 -3.9922 5 5 0 0 0 0 -0.0078 5 5 0 0 0 -5 -5z" transform="translate(544.57 742.93)"/>
 </g>
</svg>
